src/assets/images/tetherTRC.svg

<svg width="32" height="32" viewBox="0 0 32 32" fill="none" xmlns="http://www.w3.org/2000/svg">
<path fill-rule="evenodd" clip-rule="evenodd" d="M6.96923 3H25.4009C25.8407 3 26.247 3.23144 26.4663 3.60692L31.8362 12.7998C32.1147 13.2765 32.032 13.8782 31.6347 14.2648L16.8539 28.6505C16.3751 29.1165 15.6049 29.1165 15.1261 28.6505L0.365265 14.2842C-0.0411748 13.8887 -0.117283 13.2694 0.181594 12.7897L5.9216 3.57743C6.14515 3.21865 6.54183 3 6.96923 3ZM23.021 7.10429V9.68368H17.7706V11.472C21.4582 11.6632 24.2248 12.4481 24.2453 13.3889L24.2452 15.3502C24.2247 16.291 21.4582 17.0759 17.7706 17.267V21.6559H14.2842V17.267C10.5966 17.0759 7.83 16.291 7.80952 15.3502L7.80959 13.3889C7.83014 12.4481 10.5966 11.6632 14.2842 11.472V9.68368H9.03377V7.10429H23.021ZM16.0274 15.9196C19.9627 15.9196 23.2519 15.2559 24.0569 14.3696C23.3743 13.6179 20.9052 13.0264 17.7706 12.8639V14.7363C17.2088 14.7655 16.6256 14.7808 16.0274 14.7808C15.4293 14.7808 14.8461 14.7655 14.2842 14.7363V12.8639C11.1496 13.0264 8.68054 13.6179 7.99793 14.3696C8.80288 15.2559 12.0921 15.9196 16.0274 15.9196Z" fill="#009393"/>
</svg>

<svg id="b69d4873-005f-40c8-a253-b1125fbdc01e" data-name="Слой 1" xmlns="http://www.w3.org/2000/svg" width="11.29mm" height="9.17mm" viewBox="0 0 32 26"><path d="M7,3H25.4a1.23,1.23,0,0,1,1.07.61l5.37,9.19a1.2,1.2,0,0,1-.21,1.46L16.85,28.65a1.23,1.23,0,0,1-1.72,0L.37,14.28a1.19,1.19,0,0,1-.19-1.49L5.92,3.58A1.24,1.24,0,0,1,7,3ZM23,7.1V9.68H17.77v1.79c3.69.19,6.45,1,6.48,1.92v2c0,.94-2.79,1.73-6.48,1.92v4.39H14.28V17.27c-3.68-.19-6.45-1-6.47-1.92v-2c0-.94,2.79-1.73,6.47-1.92V9.68H9V7.1Zm-7,8.82c3.93,0,7.22-.66,8-1.55-.69-.75-3.15-1.34-6.29-1.51v1.88c-.56,0-1.14,0-1.74,0s-1.18,0-1.75,0V12.86c-3.13.17-5.6.76-6.28,1.51C8.8,15.26,12.09,15.92,16,15.92Z" transform="translate(0 -3)" fill="#e90128" fill-rule="evenodd"/></svg>
